X:202
T:The Old Rugged Cross
%%stretchlast false
M:6/4
L:1/4
K:G clef=C1
"^I"[G,DGB]/ "^ii"[G,DAc]/ "^I"[G,GBd]3/2 "^i°"[G,G^A^c]/ "^ii"[G,EAe] "^I"[G,GBd]2 | [G,GBd]/ [G,GBd]/ "^IV"[CGce]3/2 "^iv°"[CFc^d]/ "^vii°²"[CAcf] "^IV"[CGce]2 | "^II"[A,A^ce]/ "^V/V"[A,A^ce]/ "^V7"[DAcf]3/2 "^V"[DFce]/ "^I²"[DGBd] "^V7"[DFAc] "^V"[DFAd] | "^v7"[DAc] "^I"[G,DGB]3 [G,DGB]2 | [G,DGB]/ "^ii"[G,DAc]/ "^I"[G,GBd]3/2 "^i°"[G,G^A^c]/ "^ii"[G,EAe] "^I"[G,GBd]2 | [G,GBd]/ [G,GBd]/ "^IV"[CGce]3/2 "^iv°"[CFc^d]/ "^vii°²"[CAcf] "^IV"[CGce]2 | "^II"[A,A^ce]/ "^V/V"[A,A^ce]/ "^V7"[DAcf]3/2 "^IV"[DGce]/ "^V7"[DFcd] "^V"[DFec'] "^I²"[DGdb] | "^V7"[DFca] "^I"[G,GBg]3 [G,GBg]2 | "^V"[DAf]/ "^I²"[DBg]/ "^V7"[DFca]3/2 [DFca]/ [DFca] [DFca] "^V"[DFcg] | "^V7"[Dcf] "^I"[G,DBg] "^i°"[G,^C^Ag] "^IV²"[G,Ecg] "^I"[G,DBg]2 | "^I¹"[B,Gdg]/ "^Imaj7¹"[B,Gdf]/ "^IV"[CGce]3/2 [CGce]/ [CGce] [CGeg] "^V"[CGdf] | "^IV"[CGce] "^I"[G,GBd]3 [G,GBd]2 | [G,GBd]/ [G,GBg]/ [G,Gdb]3/2 [G,Gdb]/ [G,Gdb] [G,Gdb] "^IV²"[G,Gec'] | "^I"[G,Gdb] "^IV"[CGce] [CGce] [CGce] [CGce]2 | [CGec']/ [CGec']/ "^I²"[DGdb]3/2 "^V7"[DFca]/ "^I²"[DGBg] "^V7"[DFcd] [DAcf] | "^v7"[Dca] "^I"[G,DBg]3 [G,DBg]2 |]
